src/lib/packages/icons/src/assets/filled/layout-web-11.svg

<svg width="24" height="24" viewBox="0 0 24 24" fill="none" xmlns="http://www.w3.org/2000/svg">
<path d="M3.30005 10.75H7.94995C8.11595 10.75 8.25 10.884 8.25 11.05V19.7C8.25 19.866 8.11595 20 7.94995 20H6C4 20 3 19 3 17V11.05C3 10.884 3.13405 10.75 3.30005 10.75ZM9.75 11.05V19.7C9.75 19.866 9.88405 20 10.05 20H13.95C14.116 20 14.25 19.866 14.25 19.7V11.05C14.25 10.884 14.116 10.75 13.95 10.75H10.05C9.88405 10.75 9.75 10.884 9.75 11.05ZM18 4H6C4 4 3 5 3 7V8.94995C3 9.11595 3.13405 9.25 3.30005 9.25H20.7C20.866 9.25 21 9.11595 21 8.94995V7C21 5 20 4 18 4ZM15.75 11.05V19.7C15.75 19.866 15.884 20 16.05 20H18C20 20 21 19 21 17V11.05C21 10.884 20.866 10.75 20.7 10.75H16.05C15.884 10.75 15.75 10.884 15.75 11.05Z" fill="currentColor"/>
</svg>

<svg xmlns="http://www.w3.org/2000/svg" width="24" height="24" fill="none"><path fill="currentColor" d="M3.3 10.75h4.65a.3.3 0 0 1 .3.3v8.65a.3.3 0 0 1-.3.3H6c-2 0-3-1-3-3v-5.95a.3.3 0 0 1 .3-.3Zm6.45.3v8.65a.3.3 0 0 0 .3.3h3.9a.3.3 0 0 0 .3-.3v-8.65a.3.3 0 0 0-.3-.3h-3.9a.3.3 0 0 0-.3.3ZM18 4H6C4 4 3 5 3 7v1.95a.3.3 0 0 0 .3.3h17.4a.3.3 0 0 0 .3-.3V7c0-2-1-3-3-3Zm-2.25 7.05v8.65a.3.3 0 0 0 .3.3H18c2 0 3-1 3-3v-5.95a.3.3 0 0 0-.3-.3h-4.65a.3.3 0 0 0-.3.3Z"/></svg>
